assets/Om/Flat/om_flat.svg

<svg width="32" height="32" viewBox="0 0 32 32" fill="none" xmlns="http://www.w3.org/2000/svg">
<path d="M2 6C2 3.79086 3.79086 2 6 2H26C28.2091 2 30 3.79086 30 6V26C30 28.2091 28.2091 30 26 30H6C3.79086 30 2 28.2091 2 26V6Z" fill="#8D65C5"/>
<path d="M22 9C22.5523 9 23 8.55228 23 8C23 7.44772 22.5523 7 22 7C21.4477 7 21 7.44772 21 8C21 8.55228 21.4477 9 22 9Z" fill="white"/>
<path d="M15 13C15 14.6569 13.6569 16 12 16C11.8687 16 11.7387 16.0259 11.6173 16.0761C11.496 16.1264 11.3858 16.2 11.2929 16.2929C11.2001 16.3858 11.1264 16.496 11.0761 16.6173C11.0259 16.7386 11 16.8687 11 17C11 17.1313 11.0259 17.2614 11.0761 17.3827C11.1264 17.504 11.2001 17.6142 11.2929 17.7071C11.3858 17.8 11.496 17.8736 11.6173 17.9239C11.7387 17.9741 11.8687 18 12 18C13.6569 18 15 19.3431 15 21C15 22.6569 13.6569 24 12 24C11.1087 24 10.3082 23.6113 9.75873 22.9942L9.7472 23.0019L6.55878 19.1713C6.23936 18.7875 5.68449 18.701 5.26339 18.9693C4.75931 19.2904 4.6516 19.9811 5.03397 20.4405L8.08714 24.1086L8.0848 24.1101C9.00081 25.2617 10.4142 26 12 26C14.7614 26 17 23.7614 17 21C17 20.3718 16.8842 19.7707 16.6727 19.2168L20.7612 17.7275C22.3137 17.2326 23.4995 17.3875 24.2488 17.8038C24.9755 18.2075 25.4063 18.9134 25.4063 19.8437C25.4063 20.9867 24.9744 21.7036 24.3914 22.1077C23.7856 22.5275 22.8668 22.7116 21.732 22.4646L19.687 21.9378C19.1522 21.8 18.6069 22.1219 18.4691 22.6567C18.3314 23.1915 18.6532 23.7368 19.1881 23.8746L21.2506 24.4059L21.2679 24.4102L21.2843 24.4139C22.8296 24.7553 24.3579 24.5642 25.5306 23.7516C26.7288 22.9212 27.4063 21.5444 27.4063 19.8437C27.4063 18.2115 26.6027 16.8236 25.2201 16.0555C23.8628 15.3015 22.0704 15.206 20.1315 15.8292C20.1194 15.8331 20.1073 15.8372 20.0953 15.8416L15.5632 17.4924C15.3883 17.3147 15.2002 17.15 15.0005 17C16.2147 16.0878 17 14.6356 17 13C17 10.2386 14.7614 8 12 8C9.2386 8 7.00002 10.2386 7.00002 13C7.00002 13.5523 7.44774 14 8.00002 14C8.5523 14 9.00002 13.5523 9.00002 13C9.00002 11.3431 10.3432 10 12 10C13.6569 10 15 11.3431 15 13Z" fill="white"/>
<path d="M20.4195 9.46726C20.1081 9.01119 19.4858 8.89396 19.0298 9.20542C18.5737 9.51689 18.4565 10.1391 18.7679 10.5952L19.1117 11.0985C20.1876 12.674 22.0662 13.4999 23.9545 13.2275L24.7365 13.1147C25.2831 13.0359 25.6623 12.5288 25.5835 11.9822C25.5046 11.4356 24.9976 11.0564 24.451 11.1352L23.6689 11.248C22.536 11.4114 21.4088 10.9159 20.7633 9.97062L20.4195 9.46726Z" fill="white"/>
</svg>

<svg xmlns="http://www.w3.org/2000/svg" width="32" height="32" fill="none"><path fill="#8D65C5" d="M2 6a4 4 0 0 1 4-4h20a4 4 0 0 1 4 4v20a4 4 0 0 1-4 4H6a4 4 0 0 1-4-4V6Z"/><path fill="#fff" d="M22 9a1 1 0 1 0 0-2 1 1 0 0 0 0 2ZM15 13a3 3 0 0 1-3 3 1.001 1.001 0 0 0-.707 1.707A1 1 0 0 0 12 18a3 3 0 1 1-2.241 4.994l-.012.008-3.188-3.83a.992.992 0 1 0-1.525 1.268l3.053 3.669-.002.001a5 5 0 0 0 8.588-4.893l4.088-1.49c1.553-.494 2.739-.34 3.488.077.727.404 1.157 1.11 1.157 2.04 0 1.143-.432 1.86-1.015 2.264-.605.42-1.524.604-2.659.357l-2.045-.527a1 1 0 1 0-.499 1.937l2.063.53.017.005.016.004c1.546.341 3.074.15 4.247-.662 1.198-.83 1.875-2.208 1.875-3.908 0-1.633-.803-3.02-2.186-3.789-1.357-.753-3.15-.849-5.088-.226a.966.966 0 0 0-.037.013l-4.532 1.65A5.02 5.02 0 0 0 15 17a5 5 0 1 0-8-4 1 1 0 1 0 2 0 3 3 0 1 1 6 0Z"/><path fill="#fff" d="M20.42 9.467a1 1 0 1 0-1.652 1.128l.344.503a5 5 0 0 0 4.843 2.13l.782-.113a1 1 0 0 0-.286-1.98l-.782.113a3 3 0 0 1-2.906-1.277l-.344-.504Z"/></svg>
